X:1
T:Hare in the Corn
M:6/8
L:1/8
K:DS:From Ryan's Mammoth Collection
A|(BA)B =c2A|(BA)B =c2A|BdB AFD|(EF)E E2c|!
(BA)B =c2A|(BA)B =c2A|BdB AFA|(DE)D D2:|]!
G|F2A (AF)A|BGB AFA|BdB AFD|EFE E2G|!
F2A (AF)A|BGB AFA|BdB AFA|(DE)D D2:|!
g|fdd edd|(fd)d d2A|BdB AFD|(EF)E E2g|!
fdd edd|fdB AFA|EFA deg|fdd d2:|]!
